X: 24350
T: Louis Riel
R: reel
M: 4/4
K: Eminor
|:EFED B,DEF|G2 E2 BAFE|D2 FD A,2 DE|FAdBA F D2|
EFED B,DEF|G2 E2 BAFG|ADFA BAFA|GEED E4:|
|:BcBA Bded|B2 cA BGEG|B2 cA Gdef|1 gefd e4:|2 gefd e2 ef||
|:g2gf e2 ef|geBe geag|f d2 d d3 e|fdAd fdef|
g2 gf e2 ef|geBe g4|gfed cBAF|1 GEED E2 ef:|2 GEED E4||

